X: 120063
T: Lad's Favorite
S: Conway - DeMarco
Z: B. Black
R: reel
M: 4/4
L: 1/8
K: D
Bc | dF F2 AFEF | dF F2 A2 Bc | dF F2 BFAF |\
DBBA B2 AB |
dF F2 AFEF | dF F2 A2 Bc | (3dcB (3cBA BFAF |\
DBBA B2 ||
zc | d2 fd edfd | d2 fd faaf | d2 fd edfd |\
BdcA BAFA |
d2 fd edfd | d2 fd faaf | bgaf gfed |\
BdcA B2 ||
